humanity-icon-theme/Humanity/mimes/24/application-x-bittorrent.svg

<?xml version="1.0" encoding="UTF-8" standalone="no"?>
<!-- Created with Inkscape (http://www.inkscape.org/) -->
<svg
   xmlns:svg="http://www.w3.org/2000/svg"
   xmlns="http://www.w3.org/2000/svg"
   xmlns:xlink="http://www.w3.org/1999/xlink"
   version="1.0"
   width="24"
   height="24"
   id="svg2755">
  <defs
     id="defs2757">
    <linearGradient
       id="linearGradient5048">
      <stop
         id="stop5050"
         style="stop-color:#000000;stop-opacity:0"
         offset="0" />
      <stop
         id="stop5056"
         style="stop-color:#000000;stop-opacity:1"
         offset="0.5" />
      <stop
         id="stop5052"
         style="stop-color:#000000;stop-opacity:0"
         offset="1" />
    </linearGradient>
    <linearGradient
       x1="302.85715"
       y1="366.64789"
       x2="302.85715"
       y2="609.50507"
       id="linearGradient2673"
       xlink:href="#linearGradient5048"
       gradientUnits="userSpaceOnUse"
       gradientTransform="matrix(3.5207102e-2,0,0,8.2352858e-3,-0.724852,18.980551)" />
    <radialGradient
       cx="605.71429"
       cy="486.64789"
       r="117.14286"
       fx="605.71429"
       fy="486.64789"
       id="radialGradient2670"
       xlink:href="#linearGradient5060"
       gradientUnits="userSpaceOnUse"
       gradientTransform="matrix(-1.2048585e-2,0,0,8.2352858e-3,10.761206,18.980568)" />
    <linearGradient
       id="linearGradient5060">
      <stop
         id="stop5062"
         style="stop-color:#000000;stop-opacity:1"
         offset="0" />
      <stop
         id="stop5064"
         style="stop-color:#000000;stop-opacity:0"
         offset="1" />
    </linearGradient>
    <radialGradient
       cx="605.71429"
       cy="486.64789"
       r="117.14286"
       fx="605.71429"
       fy="486.64789"
       id="radialGradient2667"
       xlink:href="#linearGradient5060"
       gradientUnits="userSpaceOnUse"
       gradientTransform="matrix(1.2048589e-2,0,0,8.2352858e-3,13.238794,18.980568)" />
    <linearGradient
       id="linearGradient3104">
      <stop
         id="stop3106"
         style="stop-color:#aaaaaa;stop-opacity:1"
         offset="0" />
      <stop
         id="stop3108"
         style="stop-color:#c8c8c8;stop-opacity:1"
         offset="1" />
    </linearGradient>
    <linearGradient
       x1="-51.786404"
       y1="50.786446"
       x2="-51.786404"
       y2="2.9062471"
       id="linearGradient2664"
       xlink:href="#linearGradient3104"
       gradientUnits="userSpaceOnUse"
       gradientTransform="matrix(0.3922135,0,0,0.4473607,29.199293,-1.2386997)" />
    <linearGradient
       id="linearGradient3600">
      <stop
         id="stop3602"
         style="stop-color:#f4f4f4;stop-opacity:1"
         offset="0" />
      <stop
         id="stop3604"
         style="stop-color:#dbdbdb;stop-opacity:1"
         offset="1" />
    </linearGradient>
    <linearGradient
       x1="25.132275"
       y1="0.98520643"
       x2="25.132275"
       y2="47.013336"
       id="linearGradient2662"
       xlink:href="#linearGradient3600"
       gradientUnits="userSpaceOnUse"
       gradientTransform="matrix(0.4857154,0,0,0.4780255,0.3428305,-0.7059501)" />
    <radialGradient
       cx="102"
       cy="112.3047"
       r="139.55859"
       id="XMLID_8_"
       gradientUnits="userSpaceOnUse">
      <stop
         id="stop41"
         style="stop-color:#b7b8b9;stop-opacity:1"
         offset="0" />
      <stop
         id="stop47"
         style="stop-color:#ececec;stop-opacity:1"
         offset="0.18851049" />
      <stop
         id="stop49"
         style="stop-color:#fafafa;stop-opacity:0"
         offset="0.25718147" />
      <stop
         id="stop51"
         style="stop-color:#ffffff;stop-opacity:0"
         offset="0.30111277" />
      <stop
         id="stop53"
         style="stop-color:#fafafa;stop-opacity:0"
         offset="0.53130001" />
      <stop
         id="stop55"
         style="stop-color:#ebecec;stop-opacity:0"
         offset="0.84490001" />
      <stop
         id="stop57"
         style="stop-color:#e1e2e3;stop-opacity:0"
         offset="1" />
    </radialGradient>
    <radialGradient
       cx="102"
       cy="112.3047"
       r="139.55859"
       id="radialGradient2659"
       xlink:href="#XMLID_8_"
       gradientUnits="userSpaceOnUse"
       gradientTransform="matrix(0.1702128,0,0,-0.1907226,1.1063831,23.716504)" />
    <linearGradient
       id="linearGradient3211">
      <stop
         id="stop3213"
         style="stop-color:#ffffff;stop-opacity:1"
         offset="0" />
      <stop
         id="stop3215"
         style="stop-color:#ffffff;stop-opacity:0"
         offset="1" />
    </linearGradient>
    <linearGradient
       x1="24"
       y1="1.9999999"
       x2="24"
       y2="46.01725"
       id="linearGradient2656"
       xlink:href="#linearGradient3211"
       gradientUnits="userSpaceOnUse"
       gradientTransform="matrix(0.4545444,0,0,0.4651153,1.0909345,0.3372293)" />
    <linearGradient
       id="linearGradient5105-262-943-861">
      <stop
         id="stop2487"
         style="stop-color:#0d0d0d;stop-opacity:1"
         offset="0" />
      <stop
         id="stop2489"
         style="stop-color:#0d0d0d;stop-opacity:0"
         offset="1" />
    </linearGradient>
    <radialGradient
       cx="11.25"
       cy="19.03125"
       r="8.0625"
       fx="11.25"
       fy="19.03125"
       id="radialGradient2719"
       xlink:href="#linearGradient5105-262-943-861"
       gradientUnits="userSpaceOnUse"
       gradientTransform="matrix(1,0,0,0.282946,0,13.64644)" />
    <linearGradient
       id="linearGradient2747">
      <stop
         id="stop2749"
         style="stop-color:#517081;stop-opacity:0"
         offset="0" />
      <stop
         id="stop2751"
         style="stop-color:#3f6479;stop-opacity:1"
         offset="0.28050154" />
      <stop
         id="stop2753"
         style="stop-color:#2e5871;stop-opacity:1"
         offset="1" />
    </linearGradient>
    <linearGradient
       x1="16.712811"
       y1="12.415152"
       x2="16.712811"
       y2="33.62434"
       id="linearGradient2723"
       xlink:href="#linearGradient2747"
       gradientUnits="userSpaceOnUse"
       gradientTransform="matrix(0.6615388,0,0,0.6650069,-3.733145,-2.7598609)" />
    <linearGradient
       id="linearGradient2739">
      <stop
         id="stop2741"
         style="stop-color:#a2bfcf;stop-opacity:0"
         offset="0" />
      <stop
         id="stop2743"
         style="stop-color:#a2bfcf;stop-opacity:1"
         offset="0.28208435" />
      <stop
         id="stop2745"
         style="stop-color:#427da1;stop-opacity:1"
         offset="1" />
    </linearGradient>
    <linearGradient
       x1="44.714668"
       y1="20.709501"
       x2="0.81572169"
       y2="20.709501"
       id="linearGradient2721"
       xlink:href="#linearGradient2739"
       gradientUnits="userSpaceOnUse"
       gradientTransform="matrix(0,-0.3270175,-0.3191051,0,19.767517,20.121598)" />
    <linearGradient
       id="linearGradient2731">
      <stop
         id="stop2733"
         style="stop-color:#ffffff;stop-opacity:0"
         offset="0" />
      <stop
         id="stop2735"
         style="stop-color:#ffffff;stop-opacity:1"
         offset="0.17358671" />
      <stop
         id="stop2737"
         style="stop-color:#ffffff;stop-opacity:0"
         offset="1" />
    </linearGradient>
    <linearGradient
       x1="6.0093474"
       y1="25.410501"
       x2="57.726395"
       y2="25.410501"
       id="linearGradient2725"
       xlink:href="#linearGradient2731"
       gradientUnits="userSpaceOnUse"
       gradientTransform="matrix(0,0.3426517,-0.3300654,0,21.038339,4.427127)" />
    <linearGradient
       id="linearGradient8589">
      <stop
         id="stop8591"
         style="stop-color:#fefefe;stop-opacity:1"
         offset="0" />
      <stop
         id="stop8593"
         style="stop-color:#cbcbcb;stop-opacity:1"
         offset="1" />
    </linearGradient>
    <linearGradient
       x1="32.892288"
       y1="8.0590115"
       x2="36.358372"
       y2="5.4565363"
       id="linearGradient2652"
       xlink:href="#linearGradient8589"
       gradientUnits="userSpaceOnUse"
       gradientTransform="matrix(0.4778466,0,0,0.5524833,0.3722548,-7.6128303e-2)" />
  </defs>
  <g
     id="layer1">
    <rect
       width="17"
       height="1.9999981"
       x="3.5000005"
       y="21.999998"
       id="rect2879"
       style="opacity:0.15;fill:url(#linearGradient2673);fill-opacity:1;fill-rule:nonzero;stroke:none;stroke-width:1;stroke-linecap:round;stroke-linejoin:miter;marker:none;marker-start:none;marker-mid:none;marker-end:none;stroke-miterlimit:4;stroke-dasharray:none;stroke-dashoffset:0;stroke-opacity:1;visibility:visible;display:inline;overflow:visible" />
    <path
       d="M 3.5,22.000086 C 3.5,22.000086 3.5,23.999975 3.5,23.999975 C 2.8795275,24.00374 2,23.551901 2,22.999901 C 2,22.447902 2.6924,22.000086 3.5,22.000086 z"
       id="path2881"
       style="opacity:0.15;fill:url(#radialGradient2670);fill-opacity:1;fill-rule:nonzero;stroke:none;stroke-width:1;stroke-linecap:round;stroke-linejoin:miter;marker:none;marker-start:none;marker-mid:none;marker-end:none;stroke-miterlimit:4;stroke-dasharray:none;stroke-dashoffset:0;stroke-opacity:1;visibility:visible;display:inline;overflow:visible" />
    <path
       d="M 20.5,22.000086 C 20.5,22.000086 20.5,23.999975 20.5,23.999975 C 21.120472,24.00374 22,23.551901 22,22.999901 C 22,22.447902 21.307599,22.000086 20.5,22.000086 z"
       id="path2883"
       style="opacity:0.15;fill:url(#radialGradient2667);fill-opacity:1;fill-rule:nonzero;stroke:none;stroke-width:1;stroke-linecap:round;stroke-linejoin:miter;marker:none;marker-start:none;marker-mid:none;marker-end:none;stroke-miterlimit:4;stroke-dasharray:none;stroke-dashoffset:0;stroke-opacity:1;visibility:visible;display:inline;overflow:visible" />
    <path
       d="M 3.4999617,0.49996097 C 7.3955416,0.49996097 11.104417,0.49996097 15,0.49996097 C 15.683368,0.73725787 19.541325,3.628131 20.5,5.5 C 20.5,11.229157 20.500039,16.770881 20.500039,22.500039 C 14.833346,22.500039 9.1666545,22.500039 3.4999617,22.500039 C 3.4999617,15.166679 3.4999617,7.8333189 3.4999617,0.49996097 z"
       id="path4160"
       style="fill:url(#linearGradient2662);fill-opacity:1;stroke:url(#linearGradient2664);stroke-width:0.99992162;stroke-linecap:butt;stroke-linejoin:round;stroke-miterlimit:4;stroke-dasharray:none;stroke-dashoffset:0;stroke-opacity:1;display:inline" />
    <path
       d="M 4.1702128,22 C 4.0764256,22 4,21.914366 4,21.809277 L 4,1.2112452 C 4,1.1059667 4.0764256,1.0205233 4.1702128,1.0205233 C 7.6916683,1.0732401 11.594065,0.94166522 15.11124,1.0336487 L 19.950127,5.3607855 L 20,21.809277 C 20,21.914366 19.923743,22 19.829786,22 L 4.1702128,22 z"
       id="path4191"
       style="fill:url(#radialGradient2659);fill-opacity:1" />
    <path
       d="M 19.500001,5.6770357 C 19.500001,10.885341 19.500001,16.291693 19.500001,21.5 C 14.500001,21.5 9.5000012,21.5 4.5,21.5 C 4.5,14.83333 4.5,8.1666657 4.5,1.4999999 C 7.9372614,1.4999999 11.456499,1.4999999 14.893761,1.4999999"
       id="path2435"
       style="opacity:0.6;fill:none;fill-opacity:1;stroke:url(#linearGradient2656);stroke-width:0.99999988;stroke-linecap:butt;stroke-linejoin:miter;stroke-miterlimit:4;stroke-dasharray:none;stroke-dashoffset:0;stroke-opacity:1;display:inline" />
    <path
       d="M 19.3125,19.03125 A 8.0625,2.28125 0 1 1 3.1875,19.03125 A 8.0625,2.28125 0 1 1 19.3125,19.03125 z"
       transform="matrix(0.9922481,0,0,0.9643846,0.8372089,0.4465532)"
       id="path4346"
       style="opacity:0.16292138;fill:url(#radialGradient2719);fill-opacity:1;fill-rule:nonzero;stroke:none;stroke-width:1;stroke-linecap:butt;stroke-linejoin:miter;marker:none;marker-start:none;marker-mid:none;marker-end:none;stroke-miterlimit:4;stroke-dasharray:none;stroke-dashoffset:0;stroke-opacity:1;visibility:visible;display:inline;overflow:visible" />
    <path
       d="M 18.176046,12.5 L 11.984485,19.500853 L 5.823954,12.5 L 8.5000004,12.5 L 8.5000004,3.772952 L 15.5,3.772952 L 15.5,12.5 L 18.176046,12.5 z"
       id="path3288"
       style="opacity:1;fill:url(#linearGradient2721);fill-opacity:1;fill-rule:nonzero;stroke:url(#linearGradient2723);stroke-width:0.98542738;stroke-linecap:round;stroke-linejoin:round;marker:none;marker-start:none;marker-mid:none;marker-end:none;stroke-miterlimit:4;stroke-dasharray:none;stroke-dashoffset:0;stroke-opacity:0.88235504;visibility:visible;display:inline;overflow:visible;enable-background:accumulate" />
    <path
       d="M 15.926403,13.5 L 12,18.045115 L 7.9630622,13.5 L 9.5000004,13.5 L 9.5000004,0.54820303 L 14.5,0.54820303 L 14.5,13.5 L 15.926403,13.5 z"
       id="path3290"
       style="opacity:0.35400002;fill:none;fill-opacity:1;fill-rule:nonzero;stroke:url(#linearGradient2725);stroke-width:0.98542738;stroke-linecap:butt;stroke-linejoin:miter;marker:none;marker-start:none;marker-mid:none;marker-end:none;stroke-miterlimit:4;stroke-dasharray:none;stroke-dashoffset:0;stroke-opacity:1;visibility:visible;display:inline;overflow:visible;enable-background:accumulate" />
    <path
       d="M 14.075474,1 C 15.231777,1.3287671 14.414533,5.6143789 14.414533,5.6143789 C 14.414533,5.6143789 18.929921,5.1866427 20.022243,6.809375 C 21.511396,9.0216317 19.954018,6.1742029 19.848796,5.9876778 C 19.092868,4.6476323 15.982456,1.4405918 14.803387,1.0464703 C 14.715155,1.0169778 14.519511,1 14.075474,1 z"
       id="path3370"
       style="fill:#c0c0c0;fill-opacity:1;fill-rule:evenodd;stroke:none;stroke-width:1px;stroke-linecap:butt;stroke-linejoin:miter;stroke-opacity:1;display:inline" />
    <path
       d="M 14,1 C 15.526166,1 15,5 15,5 C 15,5 19.992074,4.54674 19.992074,7 C 19.992074,6.4022581 20.047825,5.5215662 19.928002,5.3440674 C 19.088897,4.1010616 16.184239,1.4821803 15.129935,1.0464703 C 15.043957,1.0109384 14.444037,1 14,1 z"
       id="path4474"
       style="fill:url(#linearGradient2652);fill-opacity:1;fill-rule:evenodd;stroke:none;stroke-width:1px;stroke-linecap:butt;stroke-linejoin:miter;stroke-opacity:1;display:inline" />
  </g>
</svg>

<?xml version="1.0" encoding="UTF-8" standalone="no"?>
<!-- Created with Inkscape (http://www.inkscape.org/) -->
<svg id="svg2755" xmlns="http://www.w3.org/2000/svg" height="24" width="24" version="1.0" xmlns:xlink="http://www.w3.org/1999/xlink">
 <defs id="defs2757">
  <linearGradient id="linearGradient2673" y2="609.51" gradientUnits="userSpaceOnUse" x2="302.86" gradientTransform="matrix(.035207 0 0 .0082353 -.72485 18.981)" y1="366.65" x1="302.86">
   <stop id="stop5050" style="stop-opacity:0" offset="0"/>
   <stop id="stop5056" offset=".5"/>
   <stop id="stop5052" style="stop-opacity:0" offset="1"/>
  </linearGradient>
  <radialGradient id="radialGradient2670" xlink:href="#linearGradient5060" gradientUnits="userSpaceOnUse" cy="486.65" cx="605.71" gradientTransform="matrix(-.012049 0 0 .0082353 10.761 18.981)" r="117.14"/>
  <linearGradient id="linearGradient5060">
   <stop id="stop5062" offset="0"/>
   <stop id="stop5064" style="stop-opacity:0" offset="1"/>
  </linearGradient>
  <radialGradient id="radialGradient2667" xlink:href="#linearGradient5060" gradientUnits="userSpaceOnUse" cy="486.65" cx="605.71" gradientTransform="matrix(.012049 0 0 .0082353 13.239 18.981)" r="117.14"/>
  <linearGradient id="linearGradient2664" y2="2.9062" gradientUnits="userSpaceOnUse" x2="-51.786" gradientTransform="matrix(.39221 0 0 .44736 29.199 -1.2387)" y1="50.786" x1="-51.786">
   <stop id="stop3106" style="stop-color:#aaa" offset="0"/>
   <stop id="stop3108" style="stop-color:#c8c8c8" offset="1"/>
  </linearGradient>
  <linearGradient id="linearGradient2662" y2="47.013" gradientUnits="userSpaceOnUse" x2="25.132" gradientTransform="matrix(.48572 0 0 .47803 .34283 -.70595)" y1=".98521" x1="25.132">
   <stop id="stop3602" style="stop-color:#f4f4f4" offset="0"/>
   <stop id="stop3604" style="stop-color:#dbdbdb" offset="1"/>
  </linearGradient>
  <radialGradient id="radialGradient2659" gradientUnits="userSpaceOnUse" cy="112.3" cx="102" gradientTransform="matrix(.17021 0 0 -.19072 1.1064 23.717)" r="139.56">
   <stop id="stop41" style="stop-color:#b7b8b9" offset="0"/>
   <stop id="stop47" style="stop-color:#ececec" offset=".18851"/>
   <stop id="stop49" style="stop-color:#fafafa;stop-opacity:0" offset=".25718"/>
   <stop id="stop51" style="stop-color:#fff;stop-opacity:0" offset=".30111"/>
   <stop id="stop53" style="stop-color:#fafafa;stop-opacity:0" offset=".53130"/>
   <stop id="stop55" style="stop-color:#ebecec;stop-opacity:0" offset=".84490"/>
   <stop id="stop57" style="stop-color:#e1e2e3;stop-opacity:0" offset="1"/>
  </radialGradient>
  <linearGradient id="linearGradient2656" y2="46.017" gradientUnits="userSpaceOnUse" x2="24" gradientTransform="matrix(.45454 0 0 .46512 1.0909 .33723)" y1="2" x1="24">
   <stop id="stop3213" style="stop-color:#fff" offset="0"/>
   <stop id="stop3215" style="stop-color:#fff;stop-opacity:0" offset="1"/>
  </linearGradient>
  <radialGradient id="radialGradient2719" gradientUnits="userSpaceOnUse" cy="19.031" cx="11.25" gradientTransform="matrix(1 0 0 .28295 0 13.646)" r="8.0625">
   <stop id="stop2487" style="stop-color:#0d0d0d" offset="0"/>
   <stop id="stop2489" style="stop-color:#0d0d0d;stop-opacity:0" offset="1"/>
  </radialGradient>
  <linearGradient id="linearGradient2723" y2="33.624" gradientUnits="userSpaceOnUse" x2="16.713" gradientTransform="matrix(.66154 0 0 .66501 -3.7331 -2.7599)" y1="12.415" x1="16.713">
   <stop id="stop2749" style="stop-color:#517081;stop-opacity:0" offset="0"/>
   <stop id="stop2751" style="stop-color:#3f6479" offset=".28050"/>
   <stop id="stop2753" style="stop-color:#2e5871" offset="1"/>
  </linearGradient>
  <linearGradient id="linearGradient2721" y2="20.71" gradientUnits="userSpaceOnUse" x2=".81572" gradientTransform="matrix(0 -.32702 -.31911 0 19.768 20.122)" y1="20.71" x1="44.715">
   <stop id="stop2741" style="stop-color:#a2bfcf;stop-opacity:0" offset="0"/>
   <stop id="stop2743" style="stop-color:#a2bfcf" offset=".28208"/>
   <stop id="stop2745" style="stop-color:#427da1" offset="1"/>
  </linearGradient>
  <linearGradient id="linearGradient2725" y2="25.411" gradientUnits="userSpaceOnUse" x2="57.726" gradientTransform="matrix(0 .34265 -.33007 0 21.038 4.4271)" y1="25.411" x1="6.0093">
   <stop id="stop2733" style="stop-color:#fff;stop-opacity:0" offset="0"/>
   <stop id="stop2735" style="stop-color:#fff" offset=".17359"/>
   <stop id="stop2737" style="stop-color:#fff;stop-opacity:0" offset="1"/>
  </linearGradient>
  <linearGradient id="linearGradient2652" y2="5.4565" gradientUnits="userSpaceOnUse" x2="36.358" gradientTransform="matrix(.47785 0 0 .55248 .37225 -.076128)" y1="8.059" x1="32.892">
   <stop id="stop8591" style="stop-color:#fefefe" offset="0"/>
   <stop id="stop8593" style="stop-color:#cbcbcb" offset="1"/>
  </linearGradient>
 </defs>
 <g id="layer1">
  <rect id="rect2879" style="opacity:.15;fill:url(#linearGradient2673)" height="2" width="17" y="22" x="3.5"/>
  <path id="path2881" style="opacity:.15;fill:url(#radialGradient2670)" d="m3.5 22v2c-0.6205 0.004-1.5-0.448-1.5-1s0.6924-1 1.5-1z"/>
  <path id="path2883" style="opacity:.15;fill:url(#radialGradient2667)" d="m20.5 22v2c0.62 0.004 1.5-0.448 1.5-1s-0.692-1-1.5-1z"/>
  <path id="path4160" style="stroke-linejoin:round;stroke:url(#linearGradient2664);stroke-width:.99992;fill:url(#linearGradient2662)" d="m3.5 0.49996h11.5c0.683 0.2373 4.541 3.1281 5.5 5v17h-17v-22z"/>
  <path id="path4191" style="fill:url(#radialGradient2659)" d="m4.1702 22c-0.0938 0-0.1702-0.086-0.1702-0.191v-20.598c0-0.105 0.0764-0.1905 0.1702-0.1905 3.5215 0.0527 7.4238-0.07883 10.941 0.0131l4.839 4.3272 0.05 16.448c0 0.105-0.076 0.191-0.17 0.191h-15.66z"/>
  <path id="path2435" style="opacity:.6;stroke:url(#linearGradient2656);fill:none" d="m19.5 5.677v15.823h-15v-20h10.394"/>
  <path id="path4346" style="opacity:.16292;fill:url(#radialGradient2719)" d="m19.312 19.031a8.0625 2.2812 0 1 1 -16.124 0 8.0625 2.2812 0 1 1 16.124 0z" transform="matrix(.99225 0 0 .96438 .83721 .44655)"/>
  <path id="path3288" style="stroke-linejoin:round;stroke-width:.98543;stroke-opacity:.88236;stroke:url(#linearGradient2723);stroke-linecap:round;fill:url(#linearGradient2721)" d="m18.176 12.5l-6.192 7.001-6.16-7.001h2.676v-8.727h7v8.727h2.676z"/>
  <path id="path3290" style="opacity:0.354;stroke-width:.98543;stroke:url(#linearGradient2725);fill:none" d="m15.926 13.5l-3.926 4.545-4.0369-4.545h1.5369v-12.952l5 0.0002v12.952h1.426z"/>
  <path id="path3370" style="fill:#c0c0c0;fill-rule:evenodd" d="m14.075 1c1.157 0.3288 0.34 4.6144 0.34 4.6144s4.515-0.4278 5.607 1.195c1.489 2.2122-0.068-0.6352-0.173-0.8217-0.756-1.3401-3.867-4.5471-5.046-4.9412-0.088-0.0295-0.283-0.0465-0.728-0.0465z"/>
  <path id="path4474" style="fill:url(#linearGradient2652);fill-rule:evenodd" d="m14 1c1.526 0 1 4 1 4s4.992-0.4533 4.992 2c0-0.5977 0.056-1.4784-0.064-1.6559-0.839-1.243-3.744-3.8619-4.798-4.2976-0.086-0.0356-0.686-0.0465-1.13-0.0465z"/>
 </g>
</svg>
